X: 142
T: Missa Tous les regretz / Kyrie
N: Derived from Rue1031a-Missa_Tous_les_regretz-Kyrie.krn
C: Pierre de la Rue
%%abc-version 2.0
%%abcx-abcm2ps-target-version 5.9.1 (29 Sep 2008)
%%abc-creator hum2abc beta
%%abcx-conversion-date 2019/02/17 08:01:15
%%abc-edited-by Jesse Rodin
%%abc-edited-by Chris Gage 06-10-2013
%%abcx-initial-encoding-date 2013/08/05/
%%humdrum-veritas 3131221734
%%humdrum-veritas-data 2702886473
%%linebreak <none>
%%barnumbers 0
L: 1/4
M: 2/1
Q: 1/2=120
%%staves [1 2 3 4]
V: 1 clef=treble
V: 2 clef=treble-8
V: 3 clef=treble-8
V: 4 clef=bass
K: C
[V:1] z8 | 
[V:2] d8 | 
[V:3] z8 | 
[V:4] z8 | 
[V:1] z8 | 
[V:2] d4d2cB | 
[V:3] z8 | 
[V:4] z8 | 
[V:1] A8 | 
[V:2] d2c3BAG | 
[V:3] z8 | 
[V:4] z8 | 
[V:1] A4A2GF | 
[V:2] F4A2B2 | 
[V:3] z8 | 
[V:4] D,8 | 
[V:1] A2G3FED | 
[V:2] c2BAG4 | 
[V:3] z8 | 
[V:4] C,4C,4 | 
[V:1] C8 | 
[V:2] z4c4- | 
[V:3] A8- | 
[V:4] A,,2C,3B,,A,,G,, | 
[V:1] z4F4- | 
[V:2] c2BAc2F2- | 
[V:3] A8- | 
[V:4] F,,8 | 
[V:1] F2EDF2E2- | 
[V:2] FGABc4- | 
[V:3] A8- | 
[V:4] z4A,,4- | 
[V:1] EDCB,A,4 | 
[V:2] c2d2e2f2- | 
[V:3] A8 | 
[V:4] A,,2B,,2C,2D,2- | 
[V:1] z2A2c4- | 
[V:2] f2edf2e2 | 
[V:3] A4A2GF | 
[V:4] D,2C,B,,A,,4 | 
[V:1] c2BAG2c2- | 
[V:2] c8 | 
[V:3] A2G3FED | 
[V:4] C,8 | 
[V:1] c2A2_B4 | 
[V:2] z8 | 
[V:3] C2F4E2 | 
[V:4] A,,2F,,2G,,4 | 
[V:1] A6GF | 
[V:2] z2C2F2ED | 
[V:3] F8 | 
[V:4] F,,8 | 
[V:1] G2A2E4 | 
[V:2] E2F2C4 | 
[V:3] c8- | 
[V:4] z8 | 
[V:1] z2A4GF | 
[V:2] z2F4A2 | 
[V:3] c8 | 
[V:4] F,6E,D, | 
[V:1] G2A2E2c2- | 
[V:2] G2F2A4- | 
[V:3] c8- | 
[V:4] E,2F,2C,2F,,2 | 
[V:1] cBAGF2E2 | 
[V:2] A4c4 | 
[V:3] c4c4 | 
[V:4] F,4A,4 | 
[V:1] G6FE | 
[V:2] d4G4 | 
[V:3] B8- | 
[V:4] G,4E,2F,2 | 
[V:1] D2G3FED | 
[V:2] z4G3F | 
[V:3] B8 | 
[V:4] G,4G,,4 | 
[V:1] C4z2C2 | 
[V:2] EDF2E4 | 
[V:3] A8 | 
[V:4] A,,8 | 
[V:1] D2F4E2- | 
[V:2] D4z2G2- | 
[V:3] z8 | 
[V:4] z2D,4C,2 | 
[V:1] E2E2F2A2- | 
[V:2] G4A4- | 
[V:3] z8 | 
[V:4] E,4D,2F,2- | 
[V:1] A2G4G2 | 
[V:2] A2B4B2 | 
[V:3] z8 | 
[V:4] F,2E,2G,2G,,2 | 
[V:1] A2c4BA | 
[V:2] cBAG^F4 | 
[V:3] z4A4 | 
[V:4] C,3B,,A,,4 | 
[V:1] B8 | 
[V:2] G4z2G2 | 
[V:3] d8 | 
[V:4] G,,8 | 
[V:1] z2E2E3F | 
[V:2] A6GF | 
[V:3] c8 | 
[V:4] z8 | 
[V:1] G2A3Bc2- | 
[V:2] E2F3GA2- | 
[V:3] z4c4 | 
[V:4] z8 | 
[V:1] c2B3AA2- | 
[V:2] A2G2A4 | 
[V:3] d4c4 | 
[V:4] z8 | 
[V:1] A2^G^FG4 | 
[V:2] E8 | 
[V:3] B8 | 
[V:4] z8 | 
[V:1] A8- | 
[V:2] z2c3de2 | 
[V:3] A8- | 
[V:4] z2A,,3B,,C,2 | 
[V:1] A8 | 
[V:2] f2e2d2f2- | 
[V:3] A8- | 
[V:4] D,2C,2F,3E, | 
[V:1] z4z2C2- | 
[V:2] f2edc3d | 
[V:3] A8- | 
[V:4] D,2C,B,,A,,4- | 
[V:1] CDE2F2E2 | 
[V:2] e2A3Bc2 | 
[V:3] A8- | 
[V:4] A,,4A,,4 | 
[V:1] A3GF2ED | 
[V:2] F2E2C2D2 | 
[V:3] A8- | 
[V:4] A,,8- | 
[V:1] C8- | 
[V:2] E4F4 | 
[V:3] A8- | 
[V:4] A,,8- | 
[V:1] C8 ||  
[V:2] E8 ||  
[V:3] A8 ||  
[V:4] A,,8 ||  
[V:1]  [K:C] [K:clef=treble][M:2/1]A8 | 
[V:2]  [K:C] [K:clef=treble-8][M:2/1]c4cBAG | 
[V:3]  [K:C] [K:clef=treble-8][M:2/1]A8- | 
[V:4]  [K:C] [K:clef=bass][M:2/1]z8 | 
[V:1] A4AGFE | 
[V:2] F4FEDC | 
[V:3] A8 | 
[V:4] z8 | 
[V:1] D8 | 
[V:2] G4d4 | 
[V:3] B8 | 
[V:4] z4D,4- | 
[V:1] z8 | 
[V:2] z4d4- | 
[V:3] A8 | 
[V:4] D,4D,C,B,,A,, | 
[V:1] z4G4- | 
[V:2] d4dcBA | 
[V:3] B8- | 
[V:4] G,,8- | 
[V:1] G4GFED | 
[V:2] G4d4 | 
[V:3] B8 | 
[V:4] G,,8 | 
[V:1] C8 | 
[V:2] e4z4 | 
[V:3] A8 | 
[V:4] z4C,4- | 
[V:1] z8 | 
[V:2] e4edcB | 
[V:3] G8 | 
[V:4] C,4C,B,,A,,G,, | 
[V:1] z4c4- | 
[V:2] A4c4 | 
[V:3] A8 | 
[V:4] F,,8- | 
[V:1] c4cBAG | 
[V:2] cBAGF4 | 
[V:3] z4A4- | 
[V:4] F,,8 | 
[V:1] F8 | 
[V:2] z4c4 | 
[V:3] A4AGFE | 
[V:4] z8 | 
[V:1] F4F4 | 
[V:2] d4dcBA | 
[V:3] D8 | 
[V:4] z8 | 
[V:1] G8- | 
[V:2] G4GFED | 
[V:3] z4G4 | 
[V:4] z4C,4- | 
[V:1] G8 | 
[V:2] C4c4- | 
[V:3] GFEDC4 | 
[V:4] C,4C,B,,A,,G,, | 
[V:1] z2A2A3B | 
[V:2] c2BAc2d2 | 
[V:3] z4F4 | 
[V:4] F,,2F,4D,2 | 
[V:1] G2E2F3G | 
[V:2] B2c2A2B2 | 
[V:3] G2A4D2 | 
[V:4] E,2C,2D,3B,, | 
[V:1] E2C2D3E | 
[V:2] G2A2F2G2 | 
[V:3] E2F2D2B2 | 
[V:4] C,2A,,2B,,2G,,2 | 
[V:1] C2A,2E3D/C/ | 
[V:2] E2C2c4 | 
[V:3] A2c3BA2- | 
[V:4] A,,8 | 
[V:1] B,2B2A2c2- | 
[V:2] z8 | 
[V:3] A2G2A4- | 
[V:4] z8 | 
[V:1] cBA4^G2 | 
[V:2] z4d3e | 
[V:3] A4B4 | 
[V:4] z8 | 
[V:1] A8 | 
[V:2] f2f2e4 | 
[V:3] A8 | 
[V:4] z2D,2D,2C,2 | 
[V:1] z2A2A2G2 | 
[V:2] A4B4 | 
[V:3] z8 | 
[V:4] F,4E,4 | 
[V:1] c4B4 | 
[V:2] A4z4 | 
[V:3] z2A2A2G2 | 
[V:4] A,,4z4 | 
[V:1] z2A4G2 | 
[V:2] e8 | 
[V:3] c4B4 | 
[V:4] z4E,4 | 
[V:1] A2c4BA | 
[V:2] e8- | 
[V:3] z2A4G2 | 
[V:4] A,,4E,4 | 
[V:1] B2A4^G2 | 
[V:2] e8 | 
[V:3] c4B4 | 
[V:4] z4E,4 | 
[V:1] A2c4B2 | 
[V:2] z4z2d2- | 
[V:3] A6B2 | 
[V:4] A,,2A,4G,2 | 
[V:1] A8 | 
[V:2] d2c2f4 | 
[V:3] c4d4 | 
[V:4] F,3E,D,4 | 
[V:1] G8 ||  
[V:2] e8 ||  
[V:3] B8 ||  
[V:4] E,8 ||  
[V:1]  [K:C] [K:clef=treble][M:2/1]z4E4 | 
[V:2]  [K:C] [K:clef=treble-8][M:2/1]c8 | 
[V:3]  [K:C] [K:clef=treble-8][M:2/1]A8 | 
[V:4]  [K:C] [K:clef=bass][M:2/1]A,,8 | 
[V:1] E4G4 | 
[V:2] c4d2e2 | 
[V:3] A4B4 | 
[V:4] A,,4G,,4 | 
[V:1] A8 | 
[V:2] f3ec2d2 | 
[V:3] A4A2A2- | 
[V:4] F,,2F,4F,2- | 
[V:1] A4A2A2- | 
[V:2] D4z2A2- | 
[V:3] A2GFc4- | 
[V:4] F,2E,D,A,4 | 
[V:1] A2GFc4- | 
[V:2] AGE2F4 | 
[V:3] c2B2A4 | 
[V:4] A,,8 | 
[V:1] c2B2A4 | 
[V:2] E4z2F2 | 
[V:3] G4z2d2 | 
[V:4] z2E,2F,2D,2 | 
[V:1] G4z2G2 | 
[V:2] G2C2G4 | 
[V:3] B2c4B2 | 
[V:4] E,8 | 
[V:1] A2G2A2F2 | 
[V:2] z2G2D2F2 | 
[V:3] c2B2A2d2 | 
[V:4] z2E,2F,2D,2 | 
[V:1] G2E2D4 | 
[V:2] E2A3FG2 | 
[V:3] G2c4B2- | 
[V:4] E,2A,,2B,,2G,,2 | 
[V:1] z2c4B2- | 
[V:2] E4z2e2- | 
[V:3] B2A4G2 | 
[V:4] A,,4E,4 | 
[V:1] B2A4^G2 | 
[V:2] e2e2e4- | 
[V:3] A4B4 | 
[V:4] z4E,4 | 
[V:1] A8 | 
[V:2] e4c3d | 
[V:3] A4z4 | 
[V:4] A,,4A,,3B,, | 
[V:1] z4A4- | 
[V:2] e2f2d2e2 | 
[V:3] z2F4E2- | 
[V:4] C,2D,4C,2 | 
[V:1] A4A4 | 
[V:2] A2f4e2- | 
[V:3] E2D4C2 | 
[V:4] D,4A,,4 | 
[V:1] A8 | 
[V:2] e2d4^c2 | 
[V:3] D4E4 | 
[V:4] z4A,,4 | 
[V:1] F8 | 
[V:2] d8 | 
[V:3] D8 | 
[V:4] _B,,6A,,2 | 
[V:1] G4A2F2 | 
[V:2] B4A4 | 
[V:3] E4F4 | 
[V:4] G,,4F,,2F,2 | 
[V:1] E2F2G2A2 | 
[V:2] z2c4BA | 
[V:3] G2A2G2c2 | 
[V:4] C,2F,2E,2F,2 | 
[V:1] B2c4BA | 
[V:2] G2F2A4 | 
[V:3] B2A2c4- | 
[V:4] G,2A,4F,2- | 
[V:1] G4z2c2- | 
[V:2] z2c3BA2 | 
[V:3] c8- | 
[V:4] F,2E,2F,4 | 
[V:1] cBA2G2c2- | 
[V:2] G2F2G2A2 | 
[V:3] c4c4 | 
[V:4] z2F,2E,2F,2 | 
[V:1] cBA2G2F2- | 
[V:2] G2F2c4 | 
[V:3] z2c3BA2 | 
[V:4] E,2F,2E,2F,2 | 
[V:1] F2E2F2D2 | 
[V:2] c3Bc2d2 | 
[V:3] G4F4 | 
[V:4] C,4F,,2_B,,2 | 
[V:1] E2F4D2 | 
[V:2] c2A2_B4 | 
[V:3] E2D2F4 | 
[V:4] C,2D,2_B,,4 | 
[V:1] E2F4ED | 
[V:2] G2F2D4 | 
[V:3] E2D2F2G2 | 
[V:4] C,2D,2_B,,4 | 
[V:1] C4z2F2- | 
[V:2] E4F3G | 
[V:3] A4D4 | 
[V:4] A,,4z2D,2- | 
[V:1] F2D2E2F2- | 
[V:2] A2_B2G2F2 | 
[V:3] z2F2E2D2 | 
[V:4] D,2_B,,2C,2D,2- | 
[V:1] F2D2E2F2- | 
[V:2] A2_B2G2F2 | 
[V:3] F4E2A2- | 
[V:4] D,2_B,,2C,2D,2 | 
[V:1] F2EDC4 | 
[V:2] D4A4 | 
[V:3] AGG3EF2 | 
[V:4] _B,,4A,,4 | 
[V:1] z2D2E2G2- | 
[V:2] _B8 | 
[V:3] G2D2G3F | 
[V:4] G,,8 | 
[V:1] GFEDD3^C | 
[V:2] A8 | 
[V:3] EDF2E4 | 
[V:4] A,,8 | 
[V:1] D8 |]  
[V:2] A8 |]  
[V:3] D8 |]  
[V:4] D,8 |]  



